images/partner-3.svg

<svg width="122" height="23" viewBox="0 0 122 23" fill="none" xmlns="http://www.w3.org/2000/svg">
<path d="M20 0.900024C20.3 1.00002 20.7 1.00002 21 1.10002C21.9 1.40002 22.6 1.90002 23 2.70002C23.2 3.00002 23.2 3.40002 23.2 3.80002C23.2 6.30002 23.2 8.80002 23.2 11.3C23.2 12.5 22.5 13.4 21.3 13.9C20.7 14.1 20.2 14.2 19.6 14.2C19.4 14.2 19.4 14.3 19.5 14.4C20.7 16.8 21.9 19.2 23.1 21.7C23.1 21.8 23.2 21.9 23.2 22C23.1 22 23 22 23 22C21.1 22 19.2 22 17.3 22C17.1 22 17 21.9 17 21.8C15.8 19.3 14.6 16.9 13.3 14.4C13.2 14.2 13.1 14.2 13 14.2C11 14.2 8.9 14.2 6.9 14.2C6.7 14.2 6.6 14.3 6.6 14.5C6.6 16.9 6.6 19.4 6.6 21.8C6.6 22 6.6 22.1 6.4 22.1C4.6 22.1 2.9 22.1 1.1 22.1C1 22 1.1 22 1.1 21.9C1.1 17.6 1.1 13.3 1.1 9.00002C1.1 8.90002 1.1 8.90002 1.1 8.80002C1.2 8.70002 1.4 8.70002 1.6 8.70002C4.3 8.70002 7 8.70002 9.8 8.70002C12.3 8.70002 14.8 8.70002 17.3 8.70002C17.8 8.70002 17.8 8.70002 17.8 8.20002C17.8 7.70002 17.8 7.30002 17.8 6.80002C17.8 6.50002 17.8 6.50002 17.5 6.50002C17.4 6.50002 17.3 6.50002 17.2 6.50002C12 6.50002 6.8 6.50002 1.7 6.50002C1.5 6.50002 1.4 6.50002 1.2 6.40002C1.2 6.30002 1.2 6.30002 1.2 6.20002C1.2 4.50002 1.2 2.70002 1.2 1.00002C1 1.00002 1 1.00002 1 0.900024C1.1 0.900024 1.2 0.900024 1.3 0.900024C7.4 0.900024 13.4 0.900024 19.5 0.900024C19.6 0.900024 19.7 0.900024 19.8 0.900024C19.9 0.900024 20 0.900024 20 0.900024Z" fill="white"/>
<path d="M93.3 0.900012C93.6 1.00001 94 1.00001 94.3 1.10001C95.2 1.40001 95.9 1.90001 96.3 2.70001C96.5 3.00001 96.5 3.40001 96.5 3.70001C96.5 8.80001 96.5 13.9 96.5 19.1C96.5 20.3 95.8 21.2 94.6 21.7C94.1 21.9 93.5 22 93 22C88 22 82.9 22 77.9 22C76.8 22 75.8 21.7 75 20.8C74.6 20.3 74.4 19.8 74.4 19.1C74.4 15.7 74.4 12.2 74.4 8.80001C74.4 8.60001 74.5 8.60001 74.6 8.60001C76.3 8.60001 78 8.60001 79.7 8.60001C79.9 8.60001 79.9 8.70001 79.9 8.80001C79.9 11.2 79.9 13.6 79.9 16C79.9 16.2 79.9 16.3 80.2 16.3C83.7 16.3 87.3 16.3 90.8 16.3C91 16.3 91.1 16.2 91.1 16C91.1 12.8 91.1 9.70001 91.1 6.50001C91.1 6.30001 91.1 6.20001 90.8 6.20001C85.4 6.20001 80.1 6.20001 74.7 6.20001C74.5 6.20001 74.4 6.20001 74.4 5.90001C74.4 5.00001 74.4 4.10001 74.4 3.30001C74.4 2.50001 74.8 1.90001 75.4 1.50001C76 1.10001 76.6 0.800012 77.4 0.700012" fill="white"/>
<path d="M68.9 0.900024C69.2 1.00002 69.6 1.00002 69.9 1.10002C70.9 1.40002 71.7 1.90002 72 3.00002C72.1 3.30002 72.1 3.60002 72.1 3.90002C72.1 6.30002 72.1 8.70002 72.1 11.2C72.1 12.7 71.2 13.6 70.1 14.1C69.5 14.3 69 14.4 68.4 14.4C64.2 14.4 60 14.4 55.8 14.4C55.5 14.4 55.5 14.5 55.5 14.7C55.5 17.1 55.5 19.5 55.5 21.9C55.5 22.1 55.5 22.1 55.3 22.1C53.6 22.1 51.9 22.1 50.2 22.1C50 22.1 50 22 50 21.9C50 17.6 50 13.3 50 9.00002C50 8.80002 50.1 8.80002 50.2 8.80002C55.6 8.80002 61 8.80002 66.4 8.80002C66.6 8.80002 66.7 8.80002 66.7 8.50002C66.7 7.90002 66.7 7.30002 66.7 6.80002C66.7 6.60002 66.7 6.60002 66.5 6.60002C65.2 6.60002 64 6.60002 62.7 6.60002C58.6 6.60002 54.4 6.60002 50.3 6.60002C50.1 6.60002 50 6.50002 50 6.30002C50 4.70002 50 3.00002 50 1.40002C50 1.30002 50 1.20002 50 1.10002C50.1 1.10002 50.2 1.10002 50.3 1.10002C56.4 1.10002 62.4 1.10002 68.5 1.10002" fill="white"/>
<path d="M25.5 0.900024C32.9 0.900024 40.3 0.900024 47.7 0.900024C47.7 2.70002 47.7 4.40002 47.7 6.20002C47.7 6.30002 47.8 6.40002 47.7 6.40002C47.6 6.30002 47.6 6.10002 47.6 6.00002C47.6 4.50002 47.6 3.00002 47.6 1.40002C47.6 1.00002 47.6 1.00002 47.2 1.00002C40.1 1.00002 33 1.00002 26 1.00002C25.8 1.00002 25.6 1.00002 25.5 0.900024Z" fill="white"/>
<path d="M19.8 0.900024C19.7 1.00002 19.6 0.900024 19.5 0.900024C13.5 0.900024 7.40004 0.900024 1.40004 0.900024C1.30004 0.900024 1.20004 0.900024 1.10004 0.900024C7.30004 0.900024 13.6 0.900024 19.8 0.900024Z" fill="white"/>
<path d="M108.3 8.60001C111.3 8.60001 114.4 8.60001 117.4 8.60001C118.3 8.60001 119.1 8.80001 119.9 9.40001C120.6 9.90001 121 10.6 121 11.5C121 14 121 16.5 121 19.1C121 20.4 120.2 21.1 119.2 21.6C118.6 21.9 118 22 117.4 22C112.5 22 107.5 22 102.6 22C101.4 22 100.3 22 99.1 22C98.9 22 98.9 22 98.9 21.8C98.9 20.1 98.9 18.4 98.9 16.7C98.9 16.5 99 16.4 99.2 16.4C104.6 16.4 109.9 16.4 115.3 16.4C115.6 16.4 115.6 16.3 115.6 16.1C115.6 15.5 115.6 15 115.6 14.4C115.6 14.2 115.5 14.2 115.4 14.2C111.2 14.2 106.9 14.2 102.7 14.2C101.8 14.2 100.9 14 100.1 13.4C99.4 12.9 99 12.2 99 11.3C99 10.5 99 9.70001 99 8.90001C99 8.70001 99.1 8.70001 99.2 8.70001C102.1 8.60001 105.2 8.60001 108.3 8.60001Z" fill="white"/>
<path d="M25.5 0.900024C32.8 0.900024 40 0.900024 47.3 0.900024C47.7 0.900024 47.7 0.900024 47.7 1.30002C47.7 3.00002 47.7 4.70002 47.7 6.40002C47.6 6.40002 47.5 6.40002 47.4 6.40002C40.2 6.40002 33 6.40002 25.8 6.40002C25.5 6.40002 25.5 6.30002 25.5 6.10002C25.5 4.50002 25.5 2.80002 25.5 1.20002C25.5 1.10002 25.5 1.00002 25.5 0.900024Z" fill="white"/>
<path d="M101.9 0.900024C102 0.900024 102.1 0.900024 102.2 0.900024C102.3 0.900024 102.4 0.900024 102.5 0.900024C108.5 0.900024 114.6 0.900024 120.6 0.900024C120.9 0.900024 120.9 0.900024 120.9 1.20002C120.9 2.90002 120.9 4.60002 120.9 6.30002C120.8 6.30002 120.7 6.30002 120.6 6.30002C113.4 6.30002 106.2 6.30002 99 6.30002C98.8 6.30002 98.7 6.20002 98.7 6.00002C98.7 5.10002 98.7 4.20002 98.7 3.40002C98.7 2.80002 99 2.20002 99.4 1.80002C100.2 1.30002 101 1.00002 101.9 0.900024Z" fill="white"/>
<path d="M39.3 15.3C39.3 17.4 39.3 19.6 39.3 21.7C39.3 21.9 39.3 22 39 22C37.3 22 35.6 22 33.9 22C33.7 22 33.7 22 33.7 21.8C33.7 17.5 33.7 13.2 33.7 8.90001C33.7 8.70001 33.7 8.70001 33.9 8.70001C35.6 8.70001 37.3 8.70001 39 8.70001C39.2 8.70001 39.2 8.70001 39.2 8.90001C39.3 11 39.3 13.2 39.3 15.3Z" fill="white"/>
</svg>

<svg width="122" height="23" fill="none" xmlns="http://www.w3.org/2000/svg"><path d="M20 .9c.3.1.7.1 1 .2.9.3 1.6.8 2 1.6.2.3.2.7.2 1.1v7.5c0 1.2-.7 2.1-1.9 2.6-.6.2-1.1.3-1.7.3-.2 0-.2.1-.1.2 1.2 2.4 2.4 4.8 3.6 7.3 0 .1.1.2.1.3h-5.9c-.2 0-.3-.1-.3-.2-1.2-2.5-2.4-4.9-3.7-7.4-.1-.2-.2-.2-.3-.2H6.9c-.2 0-.3.1-.3.3v7.3c0 .2 0 .3-.2.3H1.1c-.1-.1 0-.1 0-.2V9v-.2c.1-.1.3-.1.5-.1h15.7c.5 0 .5 0 .5-.5V6.8c0-.3 0-.3-.3-.3H1.7c-.2 0-.3 0-.5-.1v-.2V1C1 1 1 1 1 .9h19zM93.3.9c.3.1.7.1 1 .2.9.3 1.6.8 2 1.6.2.3.2.7.2 1v15.4c0 1.2-.7 2.1-1.9 2.6-.5.2-1.1.3-1.6.3H77.9c-1.1 0-2.1-.3-2.9-1.2-.4-.5-.6-1-.6-1.7V8.8c0-.2.1-.2.2-.2h5.1c.2 0 .2.1.2.2V16c0 .2 0 .3.3.3h10.6c.2 0 .3-.1.3-.3V6.5c0-.2 0-.3-.3-.3H74.7c-.2 0-.3 0-.3-.3V3.3c0-.8.4-1.4 1-1.8.6-.4 1.2-.7 2-.8M68.9.9c.3.1.7.1 1 .2 1 .3 1.8.8 2.1 1.9.1.3.1.6.1.9v7.3c0 1.5-.9 2.4-2 2.9-.6.2-1.1.3-1.7.3H55.8c-.3 0-.3.1-.3.3v7.2c0 .2 0 .2-.2.2h-5.1c-.2 0-.2-.1-.2-.2V9c0-.2.1-.2.2-.2h16.2c.2 0 .3 0 .3-.3V6.8c0-.2 0-.2-.2-.2H50.3c-.2 0-.3-.1-.3-.3V1.4v-.3h18.5M25.5.9h22.2v5.3c0 .1.1.2 0 .2-.1-.1-.1-.3-.1-.4V1.4c0-.4 0-.4-.4-.4H26c-.2 0-.4 0-.5-.1z" fill="#fff"/><path d="M19.8.9c-.1.1-.2 0-.3 0H1.1h18.7zM108.3 8.6h9.1c.9 0 1.7.2 2.5.8.7.5 1.1 1.2 1.1 2.1v7.6c0 1.3-.8 2-1.8 2.5-.6.3-1.2.4-1.8.4H99.1c-.2 0-.2 0-.2-.2v-5.1c0-.2.1-.3.3-.3h16.1c.3 0 .3-.1.3-.3v-1.7c0-.2-.1-.2-.2-.2h-12.7c-.9 0-1.8-.2-2.6-.8-.7-.5-1.1-1.2-1.1-2.1V8.9c0-.2.1-.2.2-.2 2.9-.1 6-.1 9.1-.1zM25.5.9h21.8c.4 0 .4 0 .4.4v5.1H25.8c-.3 0-.3-.1-.3-.3V1.2.9zM101.9.9H120.6c.3 0 .3 0 .3.3v5.1H99c-.2 0-.3-.1-.3-.3V3.4c0-.6.3-1.2.7-1.6.8-.5 1.6-.8 2.5-.9zM39.3 15.3v6.4c0 .2 0 .3-.3.3h-5.1c-.2 0-.2 0-.2-.2V8.9c0-.2 0-.2.2-.2H39c.2 0 .2 0 .2.2.1 2.1.1 4.3.1 6.4z" fill="#fff"/></svg>
